outputs/icons/action/calendar_3_day_sharp.svg

<svg xmlns="http://www.w3.org/2000/svg" width="1200" height="1200" fill="none"><g clip-path="url(#a)"><path fill="#000" d="M450 550H350v100h100zm200 0H550v100h100zm200 0H750v100h100zm200-350H900V100H800v100H400V100H300v100H150v900h900zm-100 800H250V450h700z"/></g><defs><clipPath id="a"><path fill="#fff" d="M0 0h1200v1200H0z"/></clipPath></defs></svg>

<svg width="1200" height="1200" viewBox="0 0 1200 1200" fill="none" xmlns="http://www.w3.org/2000/svg"><g clip-path="url(#clip0_117_779)"><path d="M450 550H350V650H450V550ZM650 550H550V650H650V550ZM850 550H750V650H850V550ZM1050 200H900V100H800V200H400V100H300V200H150V1100H1050V200ZM950 1000H250V450H950V1000Z" fill="black"/></g><defs><clipPath id="clip0_117_779"><path width="24" fill="white" d="M0 0H1200V1200H0V0z"/></clipPath></defs></svg>
